X:1
T:Tenerife, CMD
T:Tenerife, CMD
T:Laura F. Braunschweig Willmert, 1920
T:Public Domain Courtesy of the Cyber Hymnal™
C:Laura F. Braunschweig Willmert, 1920
Z:Public Domain
Z:Courtesy of the Cyber Hymnal™
%%score ( 1 2 ) ( 3 4 )
L:1/8
Q:1/4=110
M:4/4
K:Bb
V:1 treble 
V:2 treble 
V:3 bass 
V:4 bass 
V:1
 F2 | [DB]2 [EB]2 [DB]2 (DE) | [DF]2 [DG]2 [DF]2 [DF]2 | [EF]2 [Ec]2 [EA]2 [EF]2 | [Fd]6 F2 | %5
 [DB]2 [EB]2 [DB]2 (DE) | [DF]2 [EG]2 [DF]2 [FB]2 | [FA]2 [Fc]2 [=Ec]2 [CE]2 | [CF]6 F2 | %9
 !>![Fd]2 !>![Fd]2 !>![Fd]2 [FB]2 | [EG]2 [EG]2 [DF]2 [DF]2 | [DG]2 [GB]2 [GB]2 [Gc]2 | %12
 [^Fd]6 [Gd]2 | [Fe]2 [Fc]2 [EA]2 [EF]2 | [DB]2 [Fd]2 !fermata![Ff]2 [Ge]2"^riten." | %15
 [Fd]2 [=EB]2 [_EB]2 [EA]2 | [DB]6 |] %17
V:2
 F2 | x6 DE | x8 | x8 | x6 F2 | x6 DE | x8 | x8 | x6 F2 | x8 | x8 | x8 | x8 | x8 | x8 | x8 | x6 |] %17
V:3
 F,2 | [B,,F,]2 [B,,G,]2 [B,,F,]2 D,E, | [B,,F,]2 [B,,B,]2 [B,,B,]2 [B,,B,]2 | %3
 [F,A,]2 [F,A,]2 [F,C]2 [F,A,]2 | [B,,B,]6 F,2 | [B,,F,]2 [B,,G,]2 [B,,F,]2 D,E, | %6
 [B,,F,]2 [B,,B,]2 [B,,B,]2 [B,,D]2 | [C,C]2 [C,A,]2 [C,G,]2 [C,B,]2 | [F,A,]6 [F,A,]2 | %9
 !>![B,,B,]2 !>![B,,B,]2 !>![B,,B,]2 [D,B,]2 | B,2 B,2 B,2 B,2 | [G,B,]2 [G,D]2 [E,E]2 [E,A,]2 | %12
 [D,A,]6 [G,B,]2 | [A,C]2 [F,A,]2 [F,C]2 [F,A,]2 | [B,,B,]2 [B,,B,]2 !fermata![D,B,]2 [E,B,]2 | %15
 [F,B,]2 [G,C]2 [_G,C]2 [F,C]2 | [B,,B,]6 |] %17
V:4
 F,2 | x6 (D,E,) | x8 | x8 | x6 F,2 | x6 (D,E,) | x8 | x8 | x8 | x8 | (E,F,) (G,A,) B,2 (B,A,) | %11
 x8 | x8 | x8 | x8 | x8 | x6 |] %17

